poi/svg/1604.svg

<?xml version="1.0" encoding="UTF-8" standalone="no"?>
<svg
   xmlns:dc="http://purl.org/dc/elements/1.1/"
   xmlns:cc="http://creativecommons.org/ns#"
   xmlns:rdf="http://www.w3.org/1999/02/22-rdf-syntax-ns#"
   xmlns:svg="http://www.w3.org/2000/svg"
   xmlns="http://www.w3.org/2000/svg"
   xmlns:sodipodi="http://sodipodi.sourceforge.net/DTD/sodipodi-0.dtd"
   xmlns:inkscape="http://www.inkscape.org/namespaces/inkscape"
   inkscape:version="1.0 (4035a4fb49, 2020-05-01)"
   sodipodi:docname="1604.svg"
   id="svg20"
   version="1.2"
   viewBox="0 0 42.519639 42.519639"
   height="14.999999mm"
   width="14.999999mm">
  <metadata
     id="metadata24">
    <rdf:RDF>
      <cc:Work
         rdf:about="">
        <dc:format>image/svg+xml</dc:format>
        <dc:type
           rdf:resource="http://purl.org/dc/dcmitype/StillImage" />
        <dc:title>Qt SVG Document</dc:title>
      </cc:Work>
    </rdf:RDF>
  </metadata>
  <sodipodi:namedview
     inkscape:current-layer="svg20"
     inkscape:window-maximized="0"
     inkscape:window-y="0"
     inkscape:window-x="0"
     inkscape:cy="28.346482"
     inkscape:cx="28.346482"
     inkscape:zoom="5.8410537"
     showgrid="false"
     id="namedview22"
     inkscape:window-height="480"
     inkscape:window-width="1034"
     inkscape:pageshadow="2"
     inkscape:pageopacity="0"
     guidetolerance="10"
     gridtolerance="10"
     objecttolerance="10"
     borderopacity="1"
     bordercolor="#666666"
     pagecolor="#ffffff" />
  <title
     id="title2">Qt SVG Document</title>
  <desc
     id="desc4">Generated with Qt</desc>
  <defs
     id="defs6" />
  <g
     transform="translate(5.25984,5.25984)"
     id="g18"
     stroke-linejoin="bevel"
     stroke-linecap="square"
     fill-rule="evenodd"
     stroke-width="1"
     stroke="#000000"
     fill="none">
    <g
       id="g10"
       font-style="normal"
       font-weight="400"
       font-size="7.8px"
       font-family="'MS Shell Dlg 2'"
       stroke="none"
       fill-opacity="1"
       fill="#53a54f">
      <path
         id="path8"
         d="M 37.2598,16 C 37.2598,27.7415 27.7415,37.2598 16,37.2598 4.25851,37.2598 -5.25984,27.7415 -5.25984,16 -5.25984,4.25851 4.25851,-5.25984 16,-5.25984 27.7415,-5.25984 37.2598,4.25851 37.2598,16"
         fill-rule="evenodd"
         vector-effect="non-scaling-stroke" />
    </g>
    <g
       id="g14"
       font-style="normal"
       font-weight="400"
       font-size="7.8px"
       font-family="'MS Shell Dlg 2'"
       transform="translate(16,11.4646)"
       stroke="none"
       fill-opacity="0.94902"
       fill="#ffffff">
      <path
         id="path12"
         d="m 12.4839,12.9282 v 2.5196 h -24.4815 v -2.5196 h 2.79252 V -0.677246 H -11.3887 L 0.26416,-7.375 11.959,-0.677246 H 9.77539 V 12.9282 H 12.4839 M 2.51074,-0.929199 c -0.60189,0 -1.01131,0.216959 -1.22827,0.650879 -0.21696,0.433919 -0.325439,0.979817 -0.325439,1.6377 0,0.57389 0.150469,1.08129 0.451419,1.52221 0.30094,0.44092 0.66837,0.63338 1.10229,0.57739 0.44792,0 0.82235,-0.22045 1.12329,-0.66137 C 3.93498,2.35669 4.05745,1.84928 4.00146,1.27539 4.00146,0.617513 3.85099,0.085612 3.55005,-0.320313 3.2491,-0.726237 2.90267,-0.929199 2.51074,-0.929199 m -5.94189,1.847656 c -0.08399,0.629883 -0.0105,1.168783 0.22046,1.616703 0.23095,0.44791 0.57039,0.69987 1.01831,0.75586 0.48991,0.08398 0.93432,-0.07349 1.333249,-0.47242 0.398926,-0.39892 0.64738,-0.88533 0.745361,-1.45922 0.1399744,-0.657883 0.10848029,-1.203781 -0.094482,-1.6377 -0.202962,-0.43392 -0.605387,-0.678874 -1.207278,-0.73486 -0.48991,-0.08399 -0.92732,0.066484 -1.31225,0.451412 -0.38493,0.384929 -0.61939,0.878337 -0.70337,1.480225 m -2.7085,3.968263 c 0.13998,0.60189 0.40943,1.0883 0.80835,1.45923 0.39893,0.37093 0.80135,0.5144 1.20728,0.43042 0.48991,-0.05599 0.85034,-0.32194 1.0813,-0.79785 C -2.81177,5.5026 -2.73828,4.9777 -2.82227,4.40381 -2.97624,3.82992 -3.21069,3.3505 -3.52563,2.96558 -3.84058,2.58065 -4.29899,2.43018 -4.90088,2.51416 -5.3488,2.59814 -5.68823,2.87809 -5.91919,3.354 -6.15015,3.82992 -6.22363,4.34082 -6.13965,4.88672 m 8.46143,7.26468 c 0.92383,-0.056 1.6132,-0.371 2.06811,-0.9449 C 4.84481,10.6326 5.03027,9.97477 4.94629,9.23291 4.8903,8.68701 4.73283,8.27759 4.47388,8.00464 4.21493,7.73169 3.92798,7.52173 3.61304,7.37476 3.2981,7.22778 3.01115,7.1263 2.7522,7.07031 2.49325,7.01432 2.34977,6.94434 2.32178,6.86035 2.15381,5.71257 1.89836,4.88672 1.55542,4.38281 1.21248,3.87891 0.754069,3.65495 0.180176,3.71094 c -0.545899,0 -1.018311,0.32544 -1.417236,0.97632 -0.39893,0.65087 -0.59839,1.40323 -0.59839,2.25708 0,0.16796 -0.15047,0.27295 -0.45142,0.31494 -0.30094,0.04199 -0.63338,0.12247 -0.99731,0.24145 -0.36393,0.11898 -0.71037,0.34294 -1.03931,0.67188 -0.32894,0.32894 -0.5214,0.86434 -0.57739,1.6062 -0.05599,0.76989 0.16097,1.38579 0.65088,1.84769 0.48991,0.4619 1.17578,0.6928 2.05762,0.6928 0.40592,0 0.81535,-0.035 1.228269,-0.1049 0.412923,-0.07 0.850341,-0.133 1.312256,-0.189 0.195963,-0.028 0.360432,-0.042 0.493408,-0.042 0.132975,0 0.262447,0.014 0.388427,0.042 0.12598,0.028 0.26945,0.056 0.43042,0.084 0.16097,0.028 0.38143,0.042 0.66138,0.042 M 6.54199,5.13867 C 6.70996,4.56478 6.68896,4.03988 6.479,3.56396 6.26904,3.08805 5.9471,2.8221 5.51318,2.76611 4.93929,2.62614 4.48088,2.74162 4.13794,3.11255 3.795,3.48348 3.55355,3.96989 3.41357,4.57178 3.23161,5.14567 3.2491,5.66357 3.46606,6.12549 3.68302,6.5874 4.00846,6.86035 4.44238,6.94434 4.83431,7.00033 5.24723,6.86385 5.68115,6.53491 6.11507,6.20597 6.40202,5.74056 6.54199,5.13867"
         fill-rule="evenodd"
         vector-effect="none" />
    </g>
    <g
       id="g16"
       font-style="normal"
       font-weight="400"
       font-size="7.8px"
       font-family="'MS Shell Dlg 2'"
       stroke="none"
       fill-opacity="1"
       fill="#53a54f" />
  </g>
</svg>

<?xml version="1.0" encoding="UTF-8" standalone="no"?>
<svg width="11.2889mm" height="11.2889mm"
 viewBox="0 0 32 32"
 xmlns="http://www.w3.org/2000/svg" xmlns:xlink="http://www.w3.org/1999/xlink"  version="1.2" baseProfile="tiny">
<title>Qt SVG Document</title>
<desc>Generated with Qt</desc>
<defs>
</defs>
<g fill="none" stroke="black" stroke-width="1" fill-rule="evenodd" stroke-linecap="square" stroke-linejoin="bevel" >

<g fill="#53a54f" fill-opacity="1" stroke="none" transform="matrix(1,0,0,1,0,0)"
font-family="MS Shell Dlg 2" font-size="7.8" font-weight="400" font-style="normal" 
>
<path vector-effect="non-scaling-stroke" fill-rule="evenodd" d="M37.2598,16 C37.2598,27.7415 27.7415,37.2598 16,37.2598 C4.25851,37.2598 -5.25984,27.7415 -5.25984,16 C-5.25984,4.25851 4.25851,-5.25984 16,-5.25984 C27.7415,-5.25984 37.2598,4.25851 37.2598,16 "/>
</g>

<g fill="#ffffff" fill-opacity="0.94902" stroke="none" transform="matrix(1,0,0,1,16,11.4646)"
font-family="MS Shell Dlg 2" font-size="7.8" font-weight="400" font-style="normal" 
>
<path vector-effect="none" fill-rule="evenodd" d="M12.4839,12.9282 L12.4839,15.4478 L-11.9976,15.4478 L-11.9976,12.9282 L-9.20508,12.9282 L-9.20508,-0.677246 L-11.3887,-0.677246 L0.26416,-7.375 L11.959,-0.677246 L9.77539,-0.677246 L9.77539,12.9282 L12.4839,12.9282 M2.51074,-0.929199 C1.90885,-0.929199 1.49943,-0.71224 1.28247,-0.27832 C1.06551,0.155599 0.957031,0.701497 0.957031,1.35938 C0.957031,1.93327 1.1075,2.44067 1.40845,2.88159 C1.70939,3.32251 2.07682,3.51497 2.51074,3.45898 C2.95866,3.45898 3.33309,3.23853 3.63403,2.79761 C3.93498,2.35669 4.05745,1.84928 4.00146,1.27539 C4.00146,0.617513 3.85099,0.085612 3.55005,-0.320313 C3.2491,-0.726237 2.90267,-0.929199 2.51074,-0.929199 M-3.43115,0.918457 C-3.51514,1.54834 -3.44165,2.08724 -3.21069,2.53516 C-2.97974,2.98307 -2.6403,3.23503 -2.19238,3.29102 C-1.70247,3.375 -1.25806,3.21753 -0.859131,2.8186 C-0.460205,2.41968 -0.211751,1.93327 -0.11377,1.35938 C0.0262044,0.701497 -0.00528971,0.155599 -0.208252,-0.27832 C-0.411214,-0.71224 -0.813639,-0.957194 -1.41553,-1.01318 C-1.90544,-1.09717 -2.34285,-0.946696 -2.72778,-0.561768 C-3.11271,-0.176839 -3.34717,0.316569 -3.43115,0.918457 M-6.13965,4.88672 C-5.99967,5.48861 -5.73022,5.97502 -5.3313,6.34595 C-4.93237,6.71688 -4.52995,6.86035 -4.12402,6.77637 C-3.63411,6.72038 -3.27368,6.45443 -3.04272,5.97852 C-2.81177,5.5026 -2.73828,4.9777 -2.82227,4.40381 C-2.97624,3.82992 -3.21069,3.3505 -3.52563,2.96558 C-3.84058,2.58065 -4.29899,2.43018 -4.90088,2.51416 C-5.3488,2.59814 -5.68823,2.87809 -5.91919,3.354 C-6.15015,3.82992 -6.22363,4.34082 -6.13965,4.88672 M2.32178,12.1514 C3.24561,12.0954 3.93498,11.7804 4.38989,11.2065 C4.84481,10.6326 5.03027,9.97477 4.94629,9.23291 C4.8903,8.68701 4.73283,8.27759 4.47388,8.00464 C4.21493,7.73169 3.92798,7.52173 3.61304,7.37476 C3.2981,7.22778 3.01115,7.1263 2.7522,7.07031 C2.49325,7.01432 2.34977,6.94434 2.32178,6.86035 C2.15381,5.71257 1.89836,4.88672 1.55542,4.38281 C1.21248,3.87891 0.754069,3.65495 0.180176,3.71094 C-0.365723,3.71094 -0.838135,4.03638 -1.23706,4.68726 C-1.63599,5.33813 -1.83545,6.09049 -1.83545,6.94434 C-1.83545,7.1123 -1.98592,7.21729 -2.28687,7.25928 C-2.58781,7.30127 -2.92025,7.38175 -3.28418,7.50073 C-3.64811,7.61971 -3.99455,7.84367 -4.32349,8.17261 C-4.65243,8.50155 -4.84489,9.03695 -4.90088,9.77881 C-4.95687,10.5487 -4.73991,11.1646 -4.25,11.6265 C-3.76009,12.0884 -3.07422,12.3193 -2.19238,12.3193 C-1.78646,12.3193 -1.37703,12.2843 -0.964111,12.2144 C-0.551188,12.1444 -0.11377,12.0814 0.348145,12.0254 C0.544108,11.9974 0.708577,11.9834 0.841553,11.9834 C0.974528,11.9834 1.104,11.9974 1.22998,12.0254 C1.35596,12.0534 1.49943,12.0814 1.6604,12.1094 C1.82137,12.1374 2.04183,12.1514 2.32178,12.1514 M6.54199,5.13867 C6.70996,4.56478 6.68896,4.03988 6.479,3.56396 C6.26904,3.08805 5.9471,2.8221 5.51318,2.76611 C4.93929,2.62614 4.48088,2.74162 4.13794,3.11255 C3.795,3.48348 3.55355,3.96989 3.41357,4.57178 C3.23161,5.14567 3.2491,5.66357 3.46606,6.12549 C3.68302,6.5874 4.00846,6.86035 4.44238,6.94434 C4.83431,7.00033 5.24723,6.86385 5.68115,6.53491 C6.11507,6.20597 6.40202,5.74056 6.54199,5.13867 "/>
</g>

<g fill="#53a54f" fill-opacity="1" stroke="none" transform="matrix(1,0,0,1,0,0)"
font-family="MS Shell Dlg 2" font-size="7.8" font-weight="400" font-style="normal" 
>
</g>
</g>
</svg>
